dist/img/icons/nav/reload.svg

<svg width="21" height="21" viewBox="0 0 21 21" fill="none" xmlns="http://www.w3.org/2000/svg">
<path d="M18 0C17.5858 0 17.25 0.335786 17.25 0.750015V3.48974C13.3887 -0.248555 7.22804 -0.148799 3.48975 3.71246C1.72798 5.53219 0.74514 7.96716 0.750018 10.5C0.750018 10.9142 1.0858 11.25 1.50003 11.25C1.91426 11.25 2.25 10.9142 2.25 10.5C2.25093 5.94365 5.94528 2.2507 10.5017 2.25163C12.8157 2.25207 15.0231 3.22436 16.5855 4.93124L13.2631 6.03897C12.8696 6.16988 12.6567 6.59496 12.7876 6.98845C12.9185 7.38194 13.3436 7.59485 13.737 7.46394L18.237 5.96395C18.5442 5.86165 18.7511 5.57372 18.7501 5.24997V0.749971C18.75 0.335786 18.4142 0 18 0Z" fill="#A7B0BC"/>
<path d="M19.5001 9.75005C19.0859 9.75005 18.7501 10.0858 18.7501 10.5001C18.7491 15.0564 15.0548 18.7493 10.4984 18.7484C8.18438 18.748 5.97696 17.7757 4.41453 16.0688L7.73702 14.9611C8.1305 14.8302 8.34342 14.4051 8.21251 14.0116C8.08159 13.6181 7.65651 13.4052 7.26302 13.5361L2.76302 15.0361C2.45584 15.1384 2.24899 15.4263 2.25 15.7501V20.2501C2.25 20.6643 2.58579 21.0001 3.00002 21.0001C3.41425 21.0001 3.75003 20.6643 3.75003 20.2501V17.5103C7.61133 21.2486 13.772 21.1489 17.5103 17.2876C19.272 15.4679 20.2549 13.0329 20.25 10.5001C20.2501 10.0858 19.9143 9.75005 19.5001 9.75005Z" fill="#A7B0BC"/>
</svg>

<svg width="21" height="21" fill="none" xmlns="http://www.w3.org/2000/svg"><path d="M18 0a.75.75 0 00-.75.75v2.74A9.731 9.731 0 00.75 10.5a.75.75 0 001.5 0 8.25 8.25 0 0114.335-5.569L13.264 6.04a.75.75 0 00.474 1.425l4.5-1.5a.75.75 0 00.513-.714V.75A.75.75 0 0018 0zm1.5 9.75a.75.75 0 00-.75.75 8.25 8.25 0 01-14.335 5.57l3.322-1.108a.75.75 0 00-.474-1.425l-4.5 1.5a.75.75 0 00-.513.714v4.5a.75.75 0 001.5 0v-2.74a9.731 9.731 0 0016.5-7.01.75.75 0 00-.75-.75z" fill="#A7B0BC"/></svg>
